assets/icons/droplets.svg

<?xml version="1.0" encoding="UTF-8" standalone="no"?>
<svg viewBox="0 0 24 24" height="24" width="24" version="1.1" id="svg4" sodipodi:docname="showers-scattered.svg" inkscape:version="1.1 (ce6663b3b7, 2021-05-25)"
   xmlns:inkscape="http://www.inkscape.org/namespaces/inkscape"
   xmlns:sodipodi="http://sodipodi.sourceforge.net/DTD/sodipodi-0.dtd"
   xmlns="http://www.w3.org/2000/svg"
   xmlns:svg="http://www.w3.org/2000/svg">
   <path id="path845" style="fill:#808080;fill-rule:evenodd;fill-opacity:1" d="M 5 6 C 5 6 3 9 3 11 A 2 2 0 0 0 5 13 A 2 2 0 0 0 7 11 A 2 2 0 0 0 6.9960938 10.880859 C 6.9205406 8.8831465 5 6 5 6 z M 19 6 C 19 6 17 9 17 11 A 2 2 0 0 0 19 13 A 2 2 0 0 0 21 11 A 2 2 0 0 0 20.996094 10.880859 C 20.920541 8.8831465 19 6 19 6 z M 12 8 C 12 8 9 14 9 17 A 3 3 0 0 0 12 20 A 3 3 0 0 0 15 17 C 15 16.952492 14.997575 16.902493 14.996094 16.853516 A 3 3 0 0 1 14.996094 16.851562 C 14.902877 13.807247 12 8 12 8 z " />
   <defs id="defs8" />
   <sodipodi:namedview id="namedview6" pagecolor="#ffffff" bordercolor="#666666" borderopacity="1.0" inkscape:pageshadow="2" inkscape:pageopacity="0.0" inkscape:pagecheckerboard="0" showgrid="true" inkscape:snap-page="true" inkscape:zoom="39.59798" inkscape:cx="10.139406" inkscape:cy="11.086424" inkscape:window-width="1920" inkscape:window-height="1043" inkscape:window-x="1920" inkscape:window-y="0" inkscape:window-maximized="1" inkscape:current-layer="svg4">
      <inkscape:grid type="xygrid" id="grid821" />
   </sodipodi:namedview>
</svg>

<svg height="24" width="24" xmlns="http://www.w3.org/2000/svg"><path style="fill:gray;fill-opacity:1" d="M5 6s-2 3-2 5a2 2 0 0 0 2 2 2 2 0 0 0 2-2 2 2 0 0 0-.004-.12C6.921 8.884 5 6 5 6zm14 0s-2 3-2 5a2 2 0 0 0 2 2 2 2 0 0 0 2-2 2 2 0 0 0-.004-.12C20.921 8.884 19 6 19 6zm-7 2s-3 6-3 9a3 3 0 0 0 3 3 3 3 0 0 0 3-3c0-.048-.002-.098-.004-.146a3 3 0 0 1 0-.002C14.903 13.807 12 8 12 8z"/></svg>
